src/images/hackathon/slack.svg

<svg fill="none" height="23" viewBox="0 0 103 23" width="103" xmlns="http://www.w3.org/2000/svg" xmlns:xlink="http://www.w3.org/1999/xlink"><clipPath id="a"><path d="m0 0h102.615v23h-102.615z"/></clipPath><g clip-path="url(#a)"><path d="m33.2891 18.3497 1.1489-2.6913c1.2591.9286 2.8959 1.4165 4.5327 1.4165 1.1961 0 1.9673-.4722 1.9673-1.1804-.0315-1.9673-7.2397-.4407-7.3027-5.3984-.0315-2.51812 2.2191-4.46971 5.3826-4.46971 1.8886 0 3.7773.47216 5.115 1.52664l-1.0702 2.73847c-1.2276-.78688-2.7542-1.33773-4.2022-1.33773-.9915 0-1.6368.47215-1.6368 1.07023.0315 1.9516 7.3027.8814 7.3814 5.6187 0 2.5811-2.1877 4.3753-5.3039 4.3753-2.2978.0315-4.4068-.5194-6.0121-1.6683zm45.7205-3.6514c-.5981 1.0545-1.6998 1.6998-2.8959 1.6998-1.8414 0-3.3366-1.4952-3.3366-3.3366s1.4952-3.33654 3.3366-3.33654c1.1961 0 2.3135.64524 2.8959 1.69974l3.1949-1.77843c-1.1961-2.14045-3.4782-3.5884-6.0908-3.5884-3.856 0-6.9879 3.13197-6.9879 7.00363 0 3.8717 3.1319 7.0037 6.9879 7.0037 2.6126 0 4.8947-1.448 6.0908-3.5884zm-32.327 5.0679h3.9976v-19.547338h-3.9976zm37.5364-19.547338v19.547338h3.9976v-5.8548l4.7373 5.8548h5.0993l-6.0121-6.9565 5.5714-6.50001h-4.8789l-4.517 5.39831v-11.504875h-3.9976zm-21.247 6.106568v1.58959c-.661-1.1017-2.2664-1.85715-3.9661-1.85715-3.494 0-6.264 3.1005-6.264 6.98793 0 3.8874 2.7543 7.0194 6.264 7.0194 1.6997 0 3.3051-.7712 3.9661-1.8572v1.5896h3.9976v-13.45643h-3.9976zm0 8.38867c-.5666.96-1.7785 1.6683-3.1163 1.6683-1.8414 0-3.3365-1.4952-3.3365-3.3366s1.4951-3.33658 3.3365-3.33658c1.3378 0 2.5497.73968 3.1163 1.73128z" fill="#000"/><path d="m12.1991-.206055c-1.2906 0-2.34505 1.054483-2.34505 2.345045 0 1.29056 1.05445 2.34504 2.34505 2.34504h2.345v-2.34504c0-1.290562-1.0387-2.345045-2.345-2.345045zm0 6.248215h-6.23247c-1.29056 0-2.34505 1.05448-2.34505 2.34504s1.05449 2.345 2.34505 2.345h6.24817c1.2906 0 2.3451-1.05444 2.3451-2.345-.0158-1.29056-1.0545-2.34504-2.3608-2.34504z" fill="#36c5f0"/><path d="m27.0408 8.38732c0-1.29056-1.0544-2.34505-2.345-2.34505s-2.3451 1.05449-2.3451 2.34505v2.34508h2.3451c1.2906.0157 2.345-1.03878 2.345-2.34508zm-6.2482 0v-6.26395c0-1.290567-1.0545-2.34505-2.345-2.34505-1.2906 0-2.3451 1.054483-2.3451 2.34505v6.26395c0 1.29056 1.0545 2.34508 2.3451 2.34508 1.3063.0157 2.345-1.03878 2.345-2.34508z" fill="#2eb67d"/><path d="m18.4476 23.2607c1.2905 0 2.345-1.0545 2.345-2.3451 0-1.2905-1.0545-2.345-2.345-2.345h-2.3451v2.345c0 1.2906 1.0545 2.3451 2.3451 2.3451zm0-6.264h6.2482c1.2906 0 2.345-1.0545 2.345-2.345 0-1.2906-1.0544-2.3451-2.345-2.3451h-6.2482c-1.2906 0-2.3451 1.0545-2.3451 2.3451 0 1.2905 1.0545 2.345 2.3451 2.345z" fill="#ecb22e"/><path d="m3.62158 14.6517c0 1.2905 1.05449 2.345 2.34505 2.345s2.34504-1.0545 2.34504-2.345v-2.3451h-2.34504c-1.3063 0-2.34505 1.0545-2.34505 2.3451zm6.24821 0v6.2639c0 1.2906 1.05451 2.3451 2.34501 2.3451 1.2906 0 2.3451-1.0545 2.3451-2.3451v-6.2639c0-1.2906-1.0545-2.3451-2.3451-2.3451-1.3063 0-2.34501 1.0545-2.34501 2.3451z" fill="#e01e5a"/></g></svg>

<svg width="103" height="23" viewBox="0 0 103 23" fill="none" xmlns="http://www.w3.org/2000/svg">
<g clip-path="url(#clip0)">
<path d="M33.2891 18.3497L34.438 15.6584C35.6971 16.587 37.3339 17.0749 38.9707 17.0749C40.1668 17.0749 40.938 16.6027 40.938 15.8945C40.9065 13.9272 33.6983 15.4538 33.6353 10.4961C33.6038 7.97798 35.8544 6.02639 39.0179 6.02639C40.9065 6.02639 42.7952 6.49855 44.1329 7.55303L43.0627 10.2915C41.8351 9.50462 40.3085 8.95377 38.8605 8.95377C37.869 8.95377 37.2237 9.42592 37.2237 10.024C37.2552 11.9756 44.5264 10.9054 44.6051 15.6427C44.6051 18.2238 42.4174 20.018 39.3012 20.018C37.0034 20.0495 34.8944 19.4986 33.2891 18.3497ZM79.0096 14.6983C78.4115 15.7528 77.3098 16.3981 76.1137 16.3981C74.2723 16.3981 72.7771 14.9029 72.7771 13.0615C72.7771 11.2201 74.2723 9.72496 76.1137 9.72496C77.3098 9.72496 78.4272 10.3702 79.0096 11.4247L82.2045 9.64627C81.0084 7.50582 78.7263 6.05787 76.1137 6.05787C72.2577 6.05787 69.1258 9.18984 69.1258 13.0615C69.1258 16.9332 72.2577 20.0652 76.1137 20.0652C78.7263 20.0652 81.0084 18.6172 82.2045 16.4768L79.0096 14.6983ZM46.6826 19.7662H50.6802V0.218862H46.6826V19.7662ZM84.219 0.218862V19.7662H88.2166V13.9114L92.9539 19.7662H98.0532L92.0411 12.8097L97.6125 6.30969H92.7336L88.2166 11.708V0.203125H84.219V0.218862ZM62.972 6.32543V7.91502C62.311 6.81332 60.7056 6.05787 59.0059 6.05787C55.5119 6.05787 52.7419 9.15837 52.7419 13.0458C52.7419 16.9332 55.4962 20.0652 59.0059 20.0652C60.7056 20.0652 62.311 19.294 62.972 18.208V19.7976H66.9696V6.34117H62.972V6.32543ZM62.972 14.7141C62.4054 15.6741 61.1935 16.3824 59.8557 16.3824C58.0143 16.3824 56.5192 14.8872 56.5192 13.0458C56.5192 11.2044 58.0143 9.70922 59.8557 9.70922C61.1935 9.70922 62.4054 10.4489 62.972 11.4405V14.7141Z" fill="black"/>
<path d="M12.1991 -0.206055C10.9085 -0.206055 9.85405 0.848428 9.85405 2.13899C9.85405 3.42955 10.9085 4.48403 12.1991 4.48403H14.5441V2.13899C14.5441 0.848428 13.5054 -0.206055 12.1991 -0.206055ZM12.1991 6.04216H5.96663C4.67607 6.04216 3.62158 7.09664 3.62158 8.3872C3.62158 9.67776 4.67607 10.7322 5.96663 10.7322H12.2148C13.5054 10.7322 14.5599 9.67776 14.5599 8.3872C14.5441 7.09664 13.5054 6.04216 12.1991 6.04216Z" fill="#36C5F0"/>
<path d="M27.0408 8.38732C27.0408 7.09676 25.9864 6.04227 24.6958 6.04227C23.4052 6.04227 22.3507 7.09676 22.3507 8.38732V10.7324H24.6958C25.9864 10.7481 27.0408 9.69362 27.0408 8.38732ZM20.7926 8.38732V2.12337C20.7926 0.832803 19.7381 -0.22168 18.4476 -0.22168C17.157 -0.22168 16.1025 0.832803 16.1025 2.12337V8.38732C16.1025 9.67788 17.157 10.7324 18.4476 10.7324C19.7539 10.7481 20.7926 9.69362 20.7926 8.38732Z" fill="#2EB67D"/>
<path d="M18.4476 23.2607C19.7381 23.2607 20.7926 22.2062 20.7926 20.9156C20.7926 19.6251 19.7381 18.5706 18.4476 18.5706H16.1025V20.9156C16.1025 22.2062 17.157 23.2607 18.4476 23.2607ZM18.4476 16.9967H24.6958C25.9864 16.9967 27.0408 15.9422 27.0408 14.6517C27.0408 13.3611 25.9864 12.3066 24.6958 12.3066H18.4476C17.157 12.3066 16.1025 13.3611 16.1025 14.6517C16.1025 15.9422 17.157 16.9967 18.4476 16.9967Z" fill="#ECB22E"/>
<path d="M3.62158 14.6517C3.62158 15.9422 4.67607 16.9967 5.96663 16.9967C7.25719 16.9967 8.31167 15.9422 8.31167 14.6517V12.3066H5.96663C4.66033 12.3066 3.62158 13.3611 3.62158 14.6517ZM9.86979 14.6517V20.9156C9.86979 22.2062 10.9243 23.2607 12.2148 23.2607C13.5054 23.2607 14.5599 22.2062 14.5599 20.9156V14.6517C14.5599 13.3611 13.5054 12.3066 12.2148 12.3066C10.9085 12.3066 9.86979 13.3611 9.86979 14.6517Z" fill="#E01E5A"/>
</g>
<defs>
<clipPath id="clip0">
<rect width="102.615" height="23" fill="white"/>
</clipPath>
</defs>
</svg>
